src/Icon/svgs/TalkHelp.svg

<svg width="24" height="24" viewBox="0 0 24 24" fill="none" xmlns="http://www.w3.org/2000/svg">
<path fill-rule="evenodd" clip-rule="evenodd" d="M23 12C23 14.2241 22.3399 16.2941 21.2049 18.0247L22 22L18.0247 21.2049C16.2941 22.3399 14.2241 23 12 23C5.92487 23 1 18.0751 1 12C1 5.92487 5.92487 1 12 1C18.0751 1 23 5.92487 23 12ZM13 17.9999V15.9999H11V17.9999H13ZM12 5.99988C9.79 5.99988 8 7.78988 8 9.99988H10C10 8.89988 10.9 7.99988 12 7.99988C13.1 7.99988 14 8.89988 14 9.99988C14 10.8791 13.4202 11.3235 12.7704 11.8216C11.9421 12.4565 11 13.1786 11 14.9999H13C13 13.9045 13.7053 13.2882 14.4319 12.6532L14.4408 12.6454C15.21 11.9732 16 11.2828 16 9.99988C16 7.78988 14.21 5.99988 12 5.99988Z" fill="#1B1C1D"/>
</svg>

<svg xmlns="http://www.w3.org/2000/svg" width="24" height="24" fill="none"  xmlns:v="https://vecta.io/nano"><path fill-rule="evenodd" d="M23 12a10.95 10.95 0 0 1-1.795 6.025L22 22l-3.975-.795A10.95 10.95 0 0 1 12 23C5.925 23 1 18.075 1 12S5.925 1 12 1s11 4.925 11 11zm-10 6v-2h-2v2h2zM12 6a4 4 0 0 0-4 4h2c0-1.1.9-2 2-2s2 .9 2 2c0 .879-.58 1.324-1.23 1.822C11.942 12.457 11 13.179 11 15h2c0-1.095.705-1.712 1.432-2.347l.009-.008C15.21 11.973 16 11.283 16 10a4 4 0 0 0-4-4z" fill="#1b1c1d"/></svg>
